assets/Paintbrush/Flat/paintbrush_flat.svg

<svg width="32" height="32" viewBox="0 0 32 32" fill="none" xmlns="http://www.w3.org/2000/svg">
<path d="M11.955 22.0137L10.5015 20.5544C9.47518 19.5241 7.85768 19.3782 6.66358 20.2083L5.98364 20.6809C5.20465 21.2225 4.72772 22.1005 4.69753 23.0488L4.66434 24.0914C4.6383 24.9097 4.27894 25.6818 3.66963 26.2286L3.17004 26.677C3.15437 26.6911 3.14381 26.7099 3.14002 26.7306C3.09653 26.9683 3.23828 27.2008 3.46948 27.2709L6.04827 28.0536L6.43469 28.1244C8.5665 28.5145 10.7474 27.7193 12.1329 26.0528C13.1225 24.8625 13.0474 23.1105 11.955 22.0137Z" fill="#FFB02E"/>
<path d="M11.3816 17.0868L15.2865 17.5938L15.5968 21.3568L13.8176 23.1131C13.4246 23.5011 12.7914 23.497 12.4034 23.1039L9.59334 20.2573C9.20535 19.8643 9.20944 19.2311 9.60248 18.8431L11.3816 17.0868Z" fill="#D3D3D3"/>
<path d="M11.3816 17.0868L15.5968 21.3568L28.8084 7.69391C29.7746 6.69466 29.7664 5.10678 28.7899 4.11756C27.8134 3.12834 26.2257 3.09962 25.2141 4.05288L11.3816 17.0868Z" fill="#F92F60"/>
</svg>

<svg xmlns="http://www.w3.org/2000/svg" width="32" height="32" fill="none"><path fill="#FFB02E" d="m11.955 22.014-1.454-1.46a3 3 0 0 0-3.837-.346l-.68.473a3 3 0 0 0-1.286 2.368l-.034 1.042a3 3 0 0 1-.994 2.138l-.5.448a.095.095 0 0 0-.03.054.475.475 0 0 0 .33.54l2.578.783.387.07a6.011 6.011 0 0 0 5.698-2.071 3.005 3.005 0 0 0-.178-4.04Z"/><path fill="#D3D3D3" d="m11.382 17.087 3.905.507.31 3.763-1.78 1.756a1 1 0 0 1-1.414-.01l-2.81-2.846a1 1 0 0 1 .01-1.414l1.779-1.756Z"/><path fill="#F92F60" d="m11.382 17.087 4.215 4.27L28.808 7.694a2.559 2.559 0 0 0-3.594-3.641L11.382 17.087Z"/></svg>
